X: 34807
T: Road To The Gate, The
R: jig
M: 6/8
K: Dmajor
|:DCD FDF|AFA dfa|gec Ace|dAG FGE|
DCD FDF|AFA dfa|gec Ace|edc d2e:|
|:fef Adf|afd Adf|gfg bge|Beg bge|
fef afd|cdf afd|gfg bge|edc d3:|

